X: 17
T: Merry Blacksmith, The
Z: UPipes & harp
S: https://thesession.org/tunes/72#setting49898
R: reel
M: 4/4
L: 1/8
K: Dmaj
|:A2|d_edA BAFB|ABdA {c}BAFA|ABde fded|Bee_e egfe|
d3 A {c}BAFB|ABdA BAFB|ABde {g}fdec|dBAG FA D2:|
|:f|~a3 g ~f3 e|d_edA BAFA|DFAd {g}fded|Bee_e efge|
~a3 g f2 fe|d2 dA {c}BAFA|ABde fdec|dBAG FA D2:|

